X: 1766
T: Severim Her Güzeli
C: Nefîse Özses
O: Turkey
F: http://compmusic.upf.edu/node/140
N: hicazkar--sarki--aksak--severim_her--nefise_ozses
N: makam= hicazkar
N: form= sarki
N: usul= aksak = 9/8
M: 9/8
L: 1/16
K: C _1/4B _7/8e _7/8A ^f
Q: 1/4=120
%%MIDI tuningsystem comma53
gfga g2f2 feed gfed c2 | fg =a_bd'c' baag gfg4z2  | 
w:  ARANAĞME  |   | 
gfga g2f2 feed gfed c2 | Bc dedc cBBA AGG4z2  | 
w:   |   | 
gfga g2f2 feed gfed c2 | fg =a_bd'c' baag gfg4z2  | 
w:  ARANAĞME  |   | 
gfga g2f2 feed gfed c2 | Bc dedc cBBA AGG4z2  | 
w:   |   | 
g4 f2g2 g4 a4 ag | g3ffg fee2 d2gf edce  | 
w:  *  Se ve rim  her   |  *  *  gü *  ze *  li  *  sen  | 
d4 B2c2 d4 e4 f2 | g2 feb2 agg4ga gfef  | \
w:  *  den_ e ser dir   |  *  *  *  di ye *  rek   SAZ  | 
g4 f2g2 g4 a4 ag | 
w:  *  Se ve rim  her   | 
g3ffg fee2 d2gf edce  | d4 B2c2 d4 e4 f2 | \
w:  *  *  gü *  ze *  li  *  sen  |  *  den_ e ser dir   | 
g2 feb2 agg4ga gfef  | 
w:  *  *  *  di ye *  rek   SAZ  | 
g4 f2g2 a3a a4 ag | g3ff2 fee3dgf edce  | 
w:  *  Kok la rım  *  gon  |  *  *  ca la *  rı  *  sen   | 
d4 B2c2 d4 gfed cB | ed cBBA AGG4ga gfef  | 
w:  *  gi bi  ter  dir   |  *  *  *  *  di *  ye *  rek   SAZ  | 
g4 f2g2 a3a a4 ag | g3ff2 fee3dgf edce  | 
w:  *  Kok la rım  *  gon  |  *  *  ca la *  rı  *  sen   | 
d4 B2c2 d4 gfed cB | ed cBBA AGG4c'4bd'  | 
w:  *  gi bi  ter  dir   |  *  *  *  *  di *  ye *  rek   SAZ  | 
c'4 b2c'2 c'4 c'4 c'b | b3aa2 agg2 f2ba gfed  | \
w:  *  Çe ke rim  sî  |  *  *  ne ye  *  her  *  cev  | 
c4 B2c2 d4 e4 f2 | 
w:  *  ri  ka der dir   | 
g2 feba agg4c'4bd'  | c'4 b2c'2 c'4 c'4 c'b | \
w:  *  *  *  di *  ye *  rek   SAZ  |  *  Çe ke rim  sî  | 
b3aa2 agg2 f2ba gfed  | 
w:  *  *  ne ye  *  her  *  cev  | 
c4 B2c2 d4 e4 f2 | g2 feba agg4ga gfef  | \
w:  *  ri  ka der dir   |  *  *  *  di *  ye *  rek   SAZ  | 
g4 f2g2 a3a a4 ag | 
w:  *  Kok la rım  *  gon  | 
g3ff2 fee3dgf edce  | d4 B2c2 d4 gfed cB | 
w:  *  *  ca la *  rı  *  sen   |  *  gi bi  ter  dir   | 
ed cBBA AGG4ga gfef  | g4 f2g2 a3a a4 ag | 
w:  *  *  *  *  di *  ye *  rek   SAZ  |  *  Kok la rım  *  gon  | 
g3ff2 fee3dgf edce  | d4 B2c2 d4 gfed cB | 
w:  *  *  ca la *  rı  *  sen   |  *  gi bi  ter  dir   | 
ed cBBA AGG4|
w:  *  *  *  *  di *  ye *  rek    | 


